X: 23334
T: Leila's Birthday
R: reel
M: 4/4
K: Bminor
|:f2BB dcBA|B~F3 d2BG|EGBg fBgB|GAfA eAce|f~B3 dcBA|
B~F3 {c}d2BG|1 EGBd e~G3|edcd eAde:|2 EGBe dGeG|AAeA fedc||
|:B2FB d2(A2|A)ADA dcBA|BABc dcdc|BABd FEFA|
[1 B2FB d2(A2|A)ADA dcBA|BAGF GFGA|B2FD E2FA:|
[2 B2fd e2ef|B2fB efed|efG2 fede|f2af bafe||

